icons/svg/24x24/home/filled.svg

<svg xmlns="http://www.w3.org/2000/svg" width="24" height="24" viewBox="0 0 24 24">
  <path fill-rule="evenodd" d="M14.9997292,20 L8.99972918,20 L8.99972918,14 C8.99972918,12.343 10.3427292,11 11.9997292,11 C13.6567292,11 14.9997292,12.343 14.9997292,14 L14.9997292,20 Z M21.6637292,10.252 L12.6637292,2.252 C12.2847292,1.916 11.7147292,1.916 11.3357292,2.252 L2.33572918,10.252 C1.92272918,10.62 1.88572918,11.251 2.25272918,11.665 C2.61872918,12.076 3.25072918,12.112 3.66372918,11.748 L3.99972918,11.449 L3.99972918,19 C3.99972918,20.654 5.34572918,22 6.99972918,22 L16.9997292,22 C18.6537292,22 19.9997292,20.654 19.9997292,19 L19.9997292,11.449 L20.3357292,11.748 C20.5257292,11.917 20.7637292,12 20.9997292,12 C21.2747292,12 21.5497292,11.887 21.7467292,11.665 C22.1137292,11.251 22.0767292,10.62 21.6637292,10.252 L21.6637292,10.252 Z"/>
</svg>

<svg width="24" height="24" fill="none" xmlns="http://www.w3.org/2000/svg">
  <path fill-rule="evenodd" clip-rule="evenodd" d="M15 20H9v-6a3 3 0 116 0v6zM12.664 2.252A1.008 1.008 0 0012 2a.988.988 0 00-.664.252l-9 8A.99.99 0 002 11c.001.235.085.475.253.665.366.411.998.447 1.411.083L4 11.449V19c0 1.654 1.346 3 3 3h10c1.654 0 3-1.346 3-3v-7.551l.336.299a.997.997 0 001.411-.083c.169-.19.252-.43.253-.665a.99.99 0 00-.336-.748l-9-8z" fill="#000"/>
</svg>
